layouts/icon-pack/weapon_katana.svg

<?xml version="1.0" encoding="UTF-8"?>
<svg width="1200pt" height="1200pt" version="1.1" viewBox="0 0 1200 1200" xmlns="http://www.w3.org/2000/svg">
 <g fill="#fff">
  <path d="m90.07 1112.7c3.3828 4.082 7.957 7.0078 13.086 8.3633 5.125 1.3594 10.547 1.082 15.508-0.79297 48.164-18.281 183.4-78.773 303.61-168.75l55.852 74.508c2.4023 3.1914 5.9648 5.3008 9.918 5.8711 3.9531 0.57422 7.9688-0.44141 11.176-2.8242l37.922-28.336c3.1875-2.4062 5.293-5.9688 5.8633-9.9219 0.57031-3.9492-0.44141-7.9648-2.8164-11.172l-162.16-216.68c-2.4102-3.1797-5.9727-5.2852-9.9219-5.8555-3.9492-0.57031-7.9609 0.44141-11.172 2.8086l-37.805 28.289c-3.1797 2.4102-5.2852 5.9727-5.8555 9.9219-0.57031 3.9492 0.44141 7.9609 2.8086 11.172l52.406 70.008c-58.383 42.867-163.01 113.46-285.05 167.88-6.5312 2.7344-11.648 8.0352-14.152 14.66-2.5039 6.6211-2.1758 13.984 0.91016 20.355 5.457 10.879 12.125 21.109 19.875 30.492z"/>
  <path d="m1123.7 81.75c-0.44141-1.8906-2-3.3125-3.9258-3.5781-1.9219-0.26562-3.8086 0.68359-4.7461 2.3828-33.633 63.75-216.84 387.52-633.3 723.47-5.6797 4.5625-6.7188 12.809-2.3438 18.633l37.5 49.617c4.4375 5.9102 12.816 7.125 18.75 2.7188 117.19-87 428.91-337.31 578.51-640.52 12.883-25.379 19.199-53.582 18.375-82.031-0.92578-23.77-3.875-47.418-8.8125-70.688z"/>
 </g>
</svg>

<?xml version="1.0" encoding="UTF-8" standalone="no"?>
<!DOCTYPE svg PUBLIC "-//W3C//DTD SVG 1.1//EN" "http://www.w3.org/Graphics/SVG/1.1/DTD/svg11.dtd">
<svg width="100%" height="100%" viewBox="0 0 512 502" version="1.1" xmlns="http://www.w3.org/2000/svg" xmlns:xlink="http://www.w3.org/1999/xlink" xml:space="preserve" xmlns:serif="http://www.serif.com/" style="fill-rule:evenodd;clip-rule:evenodd;stroke-linejoin:round;stroke-miterlimit:2;">
    <g transform="matrix(1,0,0,1,-67.6203,-78.1277)">
        <g transform="matrix(0.480765,0,0,0.480765,35.1108,40.5667)">
            <path d="M90.07,1112.7C93.453,1116.78 98.027,1119.71 103.156,1121.06C108.281,1122.42 113.703,1122.14 118.664,1120.27C166.828,1101.99 302.064,1041.5 422.274,951.52L478.126,1026.03C480.528,1029.22 484.091,1031.33 488.044,1031.9C491.997,1032.47 496.013,1031.46 499.22,1029.08L537.142,1000.74C540.329,998.333 542.435,994.77 543.005,990.817C543.576,986.868 542.564,982.853 540.189,979.645L378.029,762.965C375.619,759.786 372.056,757.68 368.107,757.11C364.158,756.54 360.146,757.551 356.935,759.918L319.13,788.207C315.95,790.618 313.845,794.18 313.274,798.129C312.704,802.079 313.716,806.09 316.083,809.301L368.489,879.309C310.106,922.176 205.479,992.769 83.439,1047.19C76.908,1049.92 71.791,1055.22 69.287,1061.85C66.783,1068.47 67.111,1075.83 70.197,1082.2C75.654,1093.08 82.322,1103.31 90.072,1112.7L90.07,1112.7Z" style="fill:white;fill-rule:nonzero;"/>
            <path d="M1123.7,81.75C1123.26,79.859 1121.7,78.438 1119.77,78.172C1117.85,77.906 1115.97,78.855 1115.03,80.555C1081.39,144.305 898.188,468.075 481.728,804.025C476.048,808.587 475.009,816.834 479.384,822.658L516.884,872.275C521.322,878.185 529.7,879.4 535.634,874.994C652.824,787.994 964.544,537.684 1114.14,234.474C1127.03,209.095 1133.34,180.892 1132.52,152.443C1131.59,128.673 1128.64,105.025 1123.71,81.755L1123.7,81.75Z" style="fill:white;fill-rule:nonzero;"/>
        </g>
    </g>
</svg>
